static/assets/img/icons/theme/navigation/arrow-to-right.svg

<svg height="24" viewBox="0 0 24 24" width="24" xmlns="http://www.w3.org/2000/svg"><g fill="none" fill-rule="evenodd"><path d="m0 0h24v24h-24z" opacity="0"/><g fill="#000"><rect height="14" opacity=".3" rx="1" transform="matrix(0 -1 1 0 -2 22)" width="2" x="9" y="5"/><rect height="18" opacity=".3" rx="1" width="2" x="19" y="3"/><path d="m7.70710318 15.7071045c-.3905243.3905243-1.02368927.3905243-1.41421357 0-.39052429-.3905243-.39052429-1.0236893 0-1.4142136l5.99999999-5.99999997c.378579-.37857893.9881654-.39182456 1.3828314-.03004736l6 5.50000003c.407119.3731924.4346219 1.0057598.0614295 1.4128787-.3731924.407119-1.0057597.434622-1.4128787.0614296l-5.2941997-4.8530164z" fill-rule="nonzero" transform="matrix(0 -1 -1 0 24.999996 24.999996)"/></g></g></svg>

<svg width="24px" height="24px" viewBox="0 0 24 24" version="1.1" xmlns="http://www.w3.org/2000/svg" xmlns:xlink="http://www.w3.org/1999/xlink">
    <title>Icon For Arrow-to-right</title>
    <g stroke="none" stroke-width="1" fill="none" fill-rule="evenodd">
        <polygon points="0 0 24 0 24 24 0 24" opacity="0"></polygon>
        <rect fill="#000000" opacity="0.3" transform="translate(10.000000, 12.000000) rotate(-90.000000) translate(-10.000000, -12.000000) " x="9" y="5" width="2" height="14" rx="1"></rect>
        <rect fill="#000000" opacity="0.3" x="19" y="3" width="2" height="18" rx="1"></rect>
        <path d="M7.70710318,15.7071045 C7.31657888,16.0976288 6.68341391,16.0976288 6.29288961,15.7071045 C5.90236532,15.3165802 5.90236532,14.6834152 6.29288961,14.2928909 L12.2928896,8.29289093 C12.6714686,7.914312 13.281055,7.90106637 13.675721,8.26284357 L19.675721,13.7628436 C20.08284,14.136036 20.1103429,14.7686034 19.7371505,15.1757223 C19.3639581,15.5828413 18.7313908,15.6103443 18.3242718,15.2371519 L13.0300721,10.3841355 L7.70710318,15.7071045 Z" fill="#000000" fill-rule="nonzero" transform="translate(12.999999, 11.999997) scale(1, -1) rotate(90.000000) translate(-12.999999, -11.999997) "></path>
    </g>
</svg>
